packages/ffe-icons/icons/filled/sm/expand_content.svg

<svg xmlns="http://www.w3.org/2000/svg" height="20" viewBox="0 -960 960 960" width="20"><path d="M312-312h142.001q11.049 0 18.524 7.418Q480-297.164 480-286.198q0 10.966-7.475 18.581-7.475 7.616-18.524 7.616H292.155q-13.665 0-22.909-9.245-9.245-9.244-9.245-22.909v-161.846q0-11.049 7.419-18.524Q274.838-480 285.804-480q10.966 0 18.581 7.475T312-454.001V-312Zm336-336H505.999q-11.049 0-18.524-7.418Q480-662.836 480-673.802q0-10.966 7.475-18.581 7.475-7.616 18.524-7.616h161.846q13.665 0 22.909 9.245 9.245 9.244 9.245 22.909v161.846q0 11.049-7.419 18.524Q685.162-480 674.196-480q-10.966 0-18.581-7.475T648-505.999V-648Z"/></svg>

<svg xmlns="http://www.w3.org/2000/svg" height="20" viewBox="0 -960 960 960" width="20"><path d="M312-312h142q11.05 0 18.53 7.42 7.47 7.42 7.47 18.38 0 10.97-7.47 18.58Q465.05-260 454-260H292.16q-13.67 0-22.91-9.25-9.25-9.24-9.25-22.91V-454q0-11.05 7.42-18.53 7.42-7.47 18.38-7.47 10.97 0 18.58 7.47Q312-465.05 312-454v142Zm336-336H506q-11.05 0-18.53-7.42-7.47-7.42-7.47-18.38 0-10.97 7.47-18.58Q494.95-700 506-700h161.84q13.67 0 22.91 9.25 9.25 9.24 9.25 22.91V-506q0 11.05-7.42 18.53-7.42 7.47-18.38 7.47-10.97 0-18.58-7.47Q648-494.95 648-506v-142Z"/></svg>
